X: 1
T: the Wild Hills O' Wannie's
R: jig, waltz
B: Kennedy v.1 p.37 #76
Z: John Chambers <jc:trillian.mit.edu>
N: There are no C's, so A major chords may be used instead of A minor.
M: 6/8
L: 1/8
K: ADorian
gf \
| "Am"e>AA ABA | ede gfe | "G"d>BG GDG | BGB dgf |\
"Am"e>AA ABA | ede agf | "G"g>fe dBd | "Am"eAA A :|
|: fg |\
"Am"a>^ga ef=g | a^ga e2f | "G"g>fg def | gfg dfg |\
"Am"a>^ga ef=g | a^ga e2f | "G"g>fe dBd | "Am"eAA A :|
